X: 220
T:Factum est autem / Qui fuit Heli / Qui fuit Obed
N: Derived from Jos1903-Factum_est_autem.krn
C: Josquin des Prez
%%abc-version 2.0
%%abcx-abcm2ps-target-version 5.9.1 (29 Sep 2008)
%%abc-creator hum2abc beta
%%abcx-conversion-date 2019/02/12 16:15:49
%%abc-edited-by Jesse Rodin
%%abc-edited-by Jesse Rodin; Victoria Chang 2011/05/22
%%abcx-initial-encoding-date 2011/05/22/
%%humdrum-veritas 600865227
%%humdrum-veritas-data 778933245
%%linebreak <none>
%%barnumbers 0
L: 1/4
M: 2/1
Q: 1/2=120
%%staves [1 2 3 4]
V: 1 clef=treble
V: 2 clef=treble-8
V: 3 clef=treble-8
V: 4 clef=bass
K: C
[V:1] z8 | 
[V:2] z8 | 
[V:3] G8 | 
[V:4] z8 | 
[V:1] G8 | 
[V:2] z8 | 
[V:3] G4G4 | 
[V:4] z8 | 
[V:1] G4G4 | 
[V:2] z8 | 
[V:3] G6E2 | 
[V:4] C,8 | 
[V:1] G6E2 | 
[V:2] c8 | 
[V:3] E8 | 
[V:4] C,4C,4 | 
[V:1] E8 | 
[V:2] c4c4 | 
[V:3] z4E4 | 
[V:4] C,6A,,2 | 
[V:1] z4E4 | 
[V:2] c6A2 | 
[V:3] E4E2E2 | 
[V:4] A,,8 | 
[V:1] E4E2E2 | 
[V:2] A4A4 | 
[V:3] E4E4- | 
[V:4] A,,4A,,4 | 
[V:1] E4E4- | 
[V:2] A4A2A2 | 
[V:3] E4z4 | 
[V:4] A,,2A,,2A,,4 | 
[V:1] E4z4 | 
[V:2] A4A4 | 
[V:3] E4E4 | 
[V:4] A,,8 | 
[V:1] z8 | 
[V:2] B4B4 | 
[V:3] G8 | 
[V:4] z4G,,4 | 
[V:1] z8 | 
[V:2] c6B2 | 
[V:3] F4E4 | 
[V:4] A,,4C,4- | 
[V:1] z4D4 | 
[V:2] A4G4 | 
[V:3] z8 | 
[V:4] C,4B,,4 | 
[V:1] E4G4- | 
[V:2] c4B4 | 
[V:3] z8 | 
[V:4] A,,4G,,4 | 
[V:1] G4E4 | 
[V:2] G8 | 
[V:3] z8 | 
[V:4] C,8 | 
[V:1] E4z4 | 
[V:2] c4c4 | 
[V:3] E8 | 
[V:4] C,8- | 
[V:1] E8 | 
[V:2] z2C3DEF | 
[V:3] E4G4- | 
[V:4] C,8- | 
[V:1] E4G4- | 
[V:2] G2C2c4 | 
[V:3] G4E4 | 
[V:4] C,8 | 
[V:1] G2FED4 | 
[V:2] B8 | 
[V:3] G8 | 
[V:4] z8 | 
[V:1] C6D2 | 
[V:2] A4c4- | 
[V:3] A8 | 
[V:4] z4A,,4 | 
[V:1] E3FE4- | 
[V:2] c2BAG3A | 
[V:3] E8 | 
[V:4] C,8 | 
[V:1] E2DCD4 | 
[V:2] _B4A4 | 
[V:3] F8 | 
[V:4] D,8 | 
[V:1] E8 | 
[V:2] A8 | 
[V:3] E8 | 
[V:4] A,,8 | 
[V:1] z4G4 | 
[V:2] z4d4- | 
[V:3] D8 | 
[V:4] _B,,8 | 
[V:1] A8 | 
[V:2] d2cBc2A2 | 
[V:3] E6F2 | 
[V:4] A,,8 | 
[V:1] B8 | 
[V:2] d8 | 
[V:3] G8 | 
[V:4] G,,8 | 
[V:1] A6GF | 
[V:2] c6BA | 
[V:3] z8 | 
[V:4] A,,6B,,2 | 
[V:1] E8 | 
[V:2] G2C2c4- | 
[V:3] G8 | 
[V:4] C,8 | 
[V:1] E4E4 | 
[V:2] c4c4- | 
[V:3] G4G4 | 
[V:4] C,4C,4 | 
[V:1] E4E4 | 
[V:2] c4c4 | 
[V:3] G4G4- | 
[V:4] C,4C,4 | 
[V:1] G6C2 | 
[V:2] c4c4- | 
[V:3] G2E2E4 | 
[V:4] C,6A,,2 | 
[V:1] C4c4- | 
[V:2] c2A2A4 | 
[V:3] z2E2E4 | 
[V:4] A,,4A,,4 | 
[V:1] c2B2A4 | 
[V:2] A4c4- | 
[V:3] E4E4 | 
[V:4] A,,4A,,4 | 
[V:1] G4A4 | 
[V:2] c2B2A4 | 
[V:3] E8 | 
[V:4] C,4C,4 | 
[V:1] B4E4 | 
[V:2] G4A4 | 
[V:3] D4E4 | 
[V:4] B,,4A,,4 | 
[V:1] z4B4 | 
[V:2] B4B4 | 
[V:3] G8 | 
[V:4] G,,8 | 
[V:1] c4A2c2- | 
[V:2] A6GF | 
[V:3] E8 | 
[V:4] A,,8 | 
[V:1] c2BAG4- | 
[V:2] E4E4 | 
[V:3] z4G4 | 
[V:4] C,8 | 
[V:1] G2F2E4 | 
[V:2] c4c4 | 
[V:3] G4G4 | 
[V:4] C,4C,4 | 
[V:1] D4E4- | 
[V:2] B4c4 | 
[V:3] F4G4- | 
[V:4] D,4C,4- | 
[V:1] E4D4 | 
[V:2] c4A4 | 
[V:3] G4F4 | 
[V:4] C,4D,4 | 
[V:1] C8 | 
[V:2] z2A2A4 | 
[V:3] E8 | 
[V:4] A,,8 | 
[V:1] z4E4 | 
[V:2] A4c4 | 
[V:3] z8 | 
[V:4] A,,4A,,4 | 
[V:1] E4E4- | 
[V:2] A4G4 | 
[V:3] E4E4 | 
[V:4] A,,4C,4 | 
[V:1] E2DCD4 | 
[V:2] A2c4B2 | 
[V:3] E4G4 | 
[V:4] A,,4G,,4 | 
[V:1] C4D4 | 
[V:2] c4z4 | 
[V:3] E4D4 | 
[V:4] A,,4B,,4 | 
[V:1] G6F2 | 
[V:2] c8 | 
[V:3] E6F2 | 
[V:4] C,8- | 
[V:1] E3DE4 | 
[V:2] c8 | 
[V:3] G2C2G4- | 
[V:4] C,8 | 
[V:1] F4D4 | 
[V:2] c2BAB4 | 
[V:3] G2FEF4 | 
[V:4] D,8 | 
[V:1] E8 | 
[V:2] c4z4 | 
[V:3] G4z2G2 | 
[V:4] C,8 | 
[V:1] z8 | 
[V:2] c4d4 | 
[V:3] A2c4B2 | 
[V:4] z8 | 
[V:1] G4A4 | 
[V:2] c4A4 | 
[V:3] c2C2F4 | 
[V:4] z8 | 
[V:1] G4E4 | 
[V:2] B2c3BAG | 
[V:3] E4C4 | 
[V:4] z8 | 
[V:1] F4G4 | 
[V:2] A3G/F/E4 | 
[V:3] z8 | 
[V:4] z8 | 
[V:1] G4E2A2- | 
[V:2] c8 | 
[V:3] z8 | 
[V:4] z8 | 
[V:1] AGG3FED | 
[V:2] c4B4 | 
[V:3] z8 | 
[V:4] z8 | 
[V:1] C8 | 
[V:2] A4z2A2 | 
[V:3] z8 | 
[V:4] z4A,,4- | 
[V:1] z4E4- | 
[V:2] A4c4- | 
[V:3] E8 | 
[V:4] A,,4A,,4 | 
[V:1] E4E4 | 
[V:2] c2c2c4 | 
[V:3] E4G4- | 
[V:4] C,6C,2 | 
[V:1] G6G2 | 
[V:2] z2c4BA | 
[V:3] G2G2G4 | 
[V:4] C,8- | 
[V:1] G4E4- | 
[V:2] GFEDC2c2- | 
[V:3] E8 | 
[V:4] C,8 | 
[V:1] E2DCD3C | 
[V:2] c2BAB4 | 
[V:3] F8 | 
[V:4] D,8 | 
[V:1] E3DG4- | 
[V:2] c4z2c2 | 
[V:3] E8 | 
[V:4] C,8 | 
[V:1] G2^FEF3E | 
[V:2] B2A2d3c | 
[V:3] D8 | 
[V:4] z8 | 
[V:1] G8 | 
[V:2] BAG3FED | 
[V:3] E3DG4- | 
[V:4] z4z2C,2- | 
[V:1] z8 | 
[V:2] EFD4C2 | 
[V:3] G2^FE^F4 | 
[V:4] C,B,,A,,G,,A,,4 | 
[V:1] z4G4 | 
[V:2] D2E4C2- | 
[V:3] G8 | 
[V:4] G,,2C,D,E,F,G,2- | 
[V:1] A8 | 
[V:2] C2c4BA | 
[V:3] z8 | 
[V:4] G,2^F,E,F,4 | 
[V:1] G8 | 
[V:2] B2G2d4 | 
[V:3] z4G4 | 
[V:4] G,4G,,4 | 
[V:1] E4F4 | 
[V:2] c4d4 | 
[V:3] A8 | 
[V:4] z4D,4 | 
[V:1] G4G4- | 
[V:2] B3cd2e2- | 
[V:3] G8 | 
[V:4] G,,2G,3F,E,D, | 
[V:1] G4F4 | 
[V:2] edc4B2 | 
[V:3] E4F4 | 
[V:4] C,2E,2D,4 | 
[V:1] E8 | 
[V:2] c8 | 
[V:3] G4G4- | 
[V:4] C,8 | 
[V:1] z4D4 | 
[V:2] B4A4 | 
[V:3] G4F4 | 
[V:4] z8 | 
[V:1] E4C4 | 
[V:2] G2A3Gc2 | 
[V:3] E8 | 
[V:4] C,8 | 
[V:1] F6ED | 
[V:2] B2A4F2 | 
[V:3] z8 | 
[V:4] D,8 | 
[V:1] E4G4 | 
[V:2] c4B2c2 | 
[V:3] G8 | 
[V:4] C,4E,4 | 
[V:1] F4E4- | 
[V:2] d4c4- | 
[V:3] A8 | 
[V:4] D,4A,,4- | 
[V:1] E2C2C4 | 
[V:2] c2A2A4 | 
[V:3] E8 | 
[V:4] A,,4A,,4 | 
[V:1] z4E4 | 
[V:2] G8 | 
[V:3] E4G4- | 
[V:4] C,8 | 
[V:1] E4G4- | 
[V:2] c6d2 | 
[V:3] G4G4 | 
[V:4] C,4C,4 | 
[V:1] G2F2E4 | 
[V:2] e4c4 | 
[V:3] G4G4 | 
[V:4] C,4C,4 | 
[V:1] D3EF3E | 
[V:2] d4c4 | 
[V:3] G4F4 | 
[V:4] B,,4A,,4- | 
[V:1] C8 | 
[V:2] A4z4 | 
[V:3] E8 | 
[V:4] A,,4z2A,,2- | 
[V:1] z8 | 
[V:2] z8 | 
[V:3] E4E4 | 
[V:4] A,,2G,,2A,,2C,2- | 
[V:1] z8 | 
[V:2] z8 | 
[V:3] E4F4 | 
[V:4] C,B,,E,4D,2 | 
[V:1] z8 | 
[V:2] z8 | 
[V:3] E4D4 | 
[V:4] E,2G,4F,2 | 
[V:1] z8 | 
[V:2] z8 | 
[V:3] E2G4^F2 | 
[V:4] G,2G,,2A,,4 | 
[V:1] z4G4 | 
[V:2] z8 | 
[V:3] G4z2G2- | 
[V:4] G,,8 | 
[V:1] G4G4 | 
[V:2] z4d4 | 
[V:3] GABcB2G2 | 
[V:4] z4G,4- | 
[V:1] G4A4 | 
[V:2] d4d4 | 
[V:3] B3cd3c | 
[V:4] G,2F,E,D,4- | 
[V:1] A8 | 
[V:2] d4e4 | 
[V:3] A3Bc4- | 
[V:4] D,2C,B,,A,,4 | 
[V:1] G6G2 | 
[V:2] e8 | 
[V:3] c2BAG3A | 
[V:4] C,8 | 
[V:1] G4F4- | 
[V:2] d6d2 | 
[V:3] B4A4- | 
[V:4] G,,4D,4- | 
[V:1] F4E4 | 
[V:2] d4c4- | 
[V:3] A2A2A4- | 
[V:4] D,2D,2A,,4- | 
[V:1] E8- | 
[V:2] c4B4 | 
[V:3] A4G4 | 
[V:4] A,,4E,4 | 
[V:1] E8 ||  
[V:2] B8 ||  
[V:3] G8 ||  
[V:4] E,8 ||  
[V:1] [M:2/1]z8 | 
[V:2] [M:2/1]d6d2 | 
[V:3] [M:2/1]z8 | 
[V:4] [M:2/1]z8 | 
[V:1] z8 | 
[V:2] d4B4 | 
[V:3] G6G2 | 
[V:4] z8 | 
[V:1] G6G2 | 
[V:2] B4z4 | 
[V:3] G4E4 | 
[V:4] z8 | 
[V:1] G4E4 | 
[V:2] B4c4 | 
[V:3] E4z4 | 
[V:4] z8 | 
[V:1] E4z4 | 
[V:2] B4z2A2 | 
[V:3] E4F4 | 
[V:4] z8 | 
[V:1] E4F4 | 
[V:2] B3cd4 | 
[V:3] E4z2D2 | 
[V:4] z8 | 
[V:1] E4z2D2 | 
[V:2] z2G3AB2 | 
[V:3] E3FG4 | 
[V:4] z8 | 
[V:1] E3FG4 | 
[V:2] c2B4G2 | 
[V:3] z2G4E2 | 
[V:4] z8 | 
[V:1] z2G4E2 | 
[V:2] A2B2G2c2- | 
[V:3] F2G2E2A2- | 
[V:4] z8 | 
[V:1] F2G2E2F2- | 
[V:2] c2B2c4 | 
[V:3] A2G2A3G | 
[V:4] z8 | 
[V:1] FEE4D2 | 
[V:2] C4z4 | 
[V:3] E2G2F4 | 
[V:4] z8 | 
[V:1] E8 | 
[V:2] z4G4- | 
[V:3] E8 | 
[V:4] C,6D,2 | 
[V:1] z8 | 
[V:2] G2A2B4 | 
[V:3] z4F4 | 
[V:4] E,2F,2D,4 | 
[V:1] z8 | 
[V:2] c4A4 | 
[V:3] G2A4GF | 
[V:4] C,4z2C,2- | 
[V:1] z8 | 
[V:2] G4A2G2 | 
[V:3] E2D2E2D2 | 
[V:4] C,2B,,2C,2B,,2 | 
[V:1] z8 | 
[V:2] A4B4 | 
[V:3] E2F2G3A | 
[V:4] C,2A,,2G,,4 | 
[V:1] z8 | 
[V:2] z4B4 | 
[V:3] Bcd4G2 | 
[V:4] G,6F,E, | 
[V:1] z8 | 
[V:2] d4e4 | 
[V:3] A2B3Ac2 | 
[V:4] D,2G,4C,2 | 
[V:1] z8 | 
[V:2] d2c2d4 | 
[V:3] B2A3GG2- | 
[V:4] D,2A,,2B,,2G,,2 | 
[V:1] z8 | 
[V:2] c4B4 | 
[V:3] G2^F2G3A | 
[V:4] A,,4E,3F, | 
[V:1] z8 | 
[V:2] z2e4d2 | 
[V:3] BcB4A2 | 
[V:4] G,A,G,4F,2 | 
[V:1] z8 | 
[V:2] c2d4c2 | 
[V:3] G2A4G2 | 
[V:4] E,2F,4E,2 | 
[V:1] z8 | 
[V:2] B2A4^G2 | 
[V:3] F2E3DDC | 
[V:4] D,2C,2B,,4 | 
[V:1] z8 | 
[V:2] A4c4- | 
[V:3] E8 | 
[V:4] A,,8 | 
[V:1] z8 | 
[V:2] c2c2c4 | 
[V:3] z8 | 
[V:4] C,6C,2 | 
[V:1] z8 | 
[V:2] z2C2D2E2 | 
[V:3] G6G2 | 
[V:4] C,4G,,2C,2- | 
[V:1] z8 | 
[V:2] C4z2G2 | 
[V:3] G4E4 | 
[V:4] C,D,E,F,G,2C,2 | 
[V:1] z8 | 
[V:2] A2B2G4 | 
[V:3] D4E3F | 
[V:4] F,4E,4 | 
[V:1] z2E2F4 | 
[V:2] c4A2B2- | 
[V:3] G4z4 | 
[V:4] C,4z4 | 
[V:1] D2E4D2 | 
[V:2] B2G2A2F2 | 
[V:3] z8 | 
[V:4] z8 | 
[V:1] E2G4^F2 | 
[V:2] G4A4 | 
[V:3] z8 | 
[V:4] z8 | 
[V:1] G4z4 | 
[V:2] G8 | 
[V:3] z2E2EFGA | 
[V:4] z2C,4C,2 | 
[V:1] z8 | 
[V:2] z8 | 
[V:3] BAc3BA2- | 
[V:4] B,,2A,,2C,3D, | 
[V:1] z4z2E2 | 
[V:2] z4z2c2- | 
[V:3] A2^G2A4 | 
[V:4] B,,4A,,4 | 
[V:1] EFGABAc2- | 
[V:2] c2c2B2A2 | 
[V:3] z8 | 
[V:4] z8 | 
[V:1] cBA4^G2 | 
[V:2] c3dB4 | 
[V:3] z8 | 
[V:4] z8 | 
[V:1] A8 | 
[V:2] A8 | 
[V:3] z2A4A2 | 
[V:4] z2A,,2A,,B,,C,D, | 
[V:1] z8 | 
[V:2] z8 | 
[V:3] G2E2G3A | 
[V:4] E,D,G,3F,E,2- | 
[V:1] z4z2G2- | 
[V:2] z4z2e2- | 
[V:3] F4E4 | 
[V:4] E,2D,2E,4 | 
[V:1] G2F2E2F2- | 
[V:2] e2d2c2d2- | 
[V:3] z8 | 
[V:4] z8 | 
[V:1] F2E2D2C2 | 
[V:2] d2c2B2A2- | 
[V:3] z8 | 
[V:4] z8 | 
[V:1] B,4A,4- | 
[V:2] A^G^G2A3B | 
[V:3] z8 | 
[V:4] z4z2A,,2- | 
[V:1] A,4z4 | 
[V:2] c2BAG2c2 | 
[V:3] z8 | 
[V:4] A,,4C,3B,, | 
[V:1] z8 | 
[V:2] d2e3dc2- | 
[V:3] z8 | 
[V:4] G,,2C,2E,2F,2 | 
[V:1] z4z2E2- | 
[V:2] c2B2c4- | 
[V:3] z8 | 
[V:4] D,4C,4- | 
[V:1] E2E2G3F | 
[V:2] c4z2G2- | 
[V:3] G4E3F | 
[V:4] C,4z4 | 
[V:1] D2G3ABc | 
[V:2] GAB2c2G2 | 
[V:3] G4z4 | 
[V:4] z8 | 
[V:1] A2G4c2- | 
[V:2] c3de4 | 
[V:3] z2G2E3F | 
[V:4] z8 | 
[V:1] c2B2c2CD | 
[V:2] d4c3B | 
[V:3] G4z4 | 
[V:4] z8 | 
[V:1] EFG4F2 | 
[V:2] cde4dc | 
[V:3] G4E2F2 | 
[V:4] z8 | 
[V:1] D2G3EG2- | 
[V:2] [M:2/1](3B2A2B2(3E2F2G2 | 
[V:3] G4G4- | 
[V:4] z2G,,2C,3D, | 
[V:1] GFE2D4 | 
[V:2] [M:2/1]C2c4B2 | 
[V:3] G4F4- | 
[V:4] E,2C,2D,4 | 
[V:1] A8 | 
[V:2] c8 | 
[V:3] F2E2E4 | 
[V:4] A,,8 | 
[V:1] G4z2G2 | 
[V:2] z2c4B2 | 
[V:3] z2E2G3F | 
[V:4] C,4E,4 | 
[V:1] A2c2B2A2- | 
[V:2] A4d4- | 
[V:3] D2A3GA2 | 
[V:4] F,4D,4- | 
[V:1] ADG4^F2 | 
[V:2] d2e2d4 | 
[V:3] B2c2A4 | 
[V:4] D,2C,2D,4 | 
[V:1] G8- | 
[V:2] B2c2B2e2- | 
[V:3] G8 | 
[V:4] E,4z4 | 
[V:1] G4z2E2- | 
[V:2] edc4B2 | 
[V:3] z8 | 
[V:4] E,4G,4 | 
[V:1] EDF2E2G2- | 
[V:2] c2A2B3A | 
[V:3] z8 | 
[V:4] A,4G,2E,2 | 
[V:1] GFE4D2 | 
[V:2] B2c4BA | 
[V:3] z4A4 | 
[V:4] G,2A,2F,4 | 
[V:1] E8 | 
[V:2] G6C2 | 
[V:3] B3AB2c2- | 
[V:4] E,4z4 | 
[V:1] z8 | 
[V:2] C4z2E2 | 
[V:3] c2BAB2A2- | 
[V:4] E,4D,2C,2 | 
[V:1] z8 | 
[V:2] F4G2E2 | 
[V:3] A2GFE4 | 
[V:4] D,4C,4 | 
[V:1] z8 | 
[V:2] G2A2B2d2 | 
[V:3] D2E2G4 | 
[V:4] B,,2A,,2G,,4 | 
[V:1] z8 | 
[V:2] c4A2c2- | 
[V:3] E4z2A2 | 
[V:4] A,,8 | 
[V:1] z4G4- | 
[V:2] c2BAG2C2 | 
[V:3] G2c4BA | 
[V:4] C,6C,2 | 
[V:1] G2G2G4 | 
[V:2] E3FG4 | 
[V:3] G2C2E3F | 
[V:4] C,8 | 
[V:1] z2E4D2 | 
[V:2] C2c4B2 | 
[V:3] G2CDEFG2 | 
[V:4] z8 | 
[V:1] E2G4^F2 | 
[V:2] cBAGA4 | 
[V:3] C2E2D4 | 
[V:4] z8 | 
[V:1] G8 | 
[V:2] G8 | 
[V:3] z2E4D2 | 
[V:4] z2C,4B,,2 | 
[V:1] z8 | 
[V:2] z8 | 
[V:3] E2G4^F2 | 
[V:4] C,B,,A,,G,,A,,4 | 
[V:1] z8 | 
[V:2] z2c4B2 | 
[V:3] G2CDEFG2 | 
[V:4] G,,2C,3D,E,F, | 
[V:1] z8 | 
[V:2] cBAGA4 | 
[V:3] C2E2D4 | 
[V:4] E,D,G,4^F,2 | 
[V:1] z2E4D2 | 
[V:2] G4z4 | 
[V:3] z2c4B2 | 
[V:4] G,2C,D,E,F,G,2 | 
[V:1] E2G4^F2 | 
[V:2] z8 | 
[V:3] cBAGA4 | 
[V:4] C,2E,2D,4 | 
[V:1] G2E3FG2 | 
[V:2] z4E3F | 
[V:3] G4z4 | 
[V:4] E,3F,G,2G,2 | 
[V:1] G2G3FE2 | 
[V:2] G2G2G3A | 
[V:3] E3FG2G2 | 
[V:4] G,2C,D,E,F,G,2- | 
[V:1] D2E4D2 | 
[V:2] BAc4B2 | 
[V:3] G4F4 | 
[V:4] G,2C,2D,4 | 
[V:1] E8 | 
[V:2] [M:2/1](3c6B2G4 | 
[V:3] E4E4 | 
[V:4] [M:2/1](3C,6D,2E,4 | 
[V:1] z8 | 
[V:2] (3:2:2A8B4 | 
[V:3] [M:2/1](3D6E2F4 | 
[V:4] (3:2:2F,4D,8 | 
[V:1] z8 | 
[V:2] (3:2:5c4B2A4G F | 
[V:3] (3:2:4G4F6E D | 
[V:4] (3:2:2C,4D,8 | 
[V:1] z8 | 
[V:2] (3G4C4E4- | 
[V:3] (3C4G6A2 | 
[V:4] (3:2:2E,8z4 | 
[V:1] z8 | 
[V:2] (3:2:4E2F2G4E4 | 
[V:3] (3B4c4B4 | 
[V:4] (3E,6F,2G,4 | 
[V:1] z8 | 
[V:2] (3F4G4A4 | 
[V:3] (3A4B4c4 | 
[V:4] (3A,4G,4F,4 | 
[V:1] z8 | 
[V:2] (3E4F4G4 | 
[V:3] (3C4D4E4 | 
[V:4] (3G,4F,4E,4 | 
[V:1] z8 | 
[V:2] (3C4G6A2 | 
[V:3] (3G6A2B4 | 
[V:4] (3:2:2E,8z4 | 
[V:1] z8 | 
[V:2] (3B4c6B2 | 
[V:3] (3:2:4G6F2E3D | 
[V:4] (3E,6D,2C,4 | 
[V:1] z8 | 
[V:2] (3A4e6d2 | 
[V:3] (3F4E4G4 | 
[V:4] (3D,4C,4B,,4 | 
[V:1] z8 | 
[V:2] (3:2:2c4B8 | 
[V:3] (3:2:4A4E3FG4 | 
[V:4] (3:2:2A,,8^G,,4 | 
[V:1] z8 | 
[V:2] [M:2/1]A4z4 | 
[V:3] [M:2/1]C4E3F | 
[V:4] [M:2/1]A,,4C,3D, | 
[V:1] z8 | 
[V:2] c6c2 | 
[V:3] G2A2G2A2- | 
[V:4] E,2F,2E,2F,2- | 
[V:1] z8 | 
[V:2] c4A4 | 
[V:3] AGE2F2E2- | 
[V:4] F,E,C,2D,2C,2- | 
[V:1] z8 | 
[V:2] G3A/G/AGc2- | 
[V:3] EDD2E2G2- | 
[V:4] C,A,,B,,2C,2E,2 | 
[V:1] z8 | 
[V:2] c2B2c4 | 
[V:3] GEF2G2A2- | 
[V:4] D,4C,4 | 
[V:1] z8 | 
[V:2] z4z2A2- | 
[V:3] AGFEF2E2 | 
[V:4] z2D,4C,2 | 
[V:1] z8 | 
[V:2] A2G2A3B | 
[V:3] F2G2DEFG | 
[V:4] D,2E,2F,4 | 
[V:1] z8 | 
[V:2] c4z2c2- | 
[V:3] A3GA2G2 | 
[V:4] z2F,4E,2 | 
[V:1] z8 | 
[V:2] c2B2c2A2 | 
[V:3] A2F2G2D2 | 
[V:4] F,2D,2C,2F,2- | 
[V:1] z8 | 
[V:2] G2c2B2A2- | 
[V:3] EFGAF2E2- | 
[V:4] F,2E,2D,2C,2 | 
[V:1] z4z2C2- | 
[V:2] A2^G2A4 | 
[V:3] E2D2E4- | 
[V:4] B,,4A,,4- | 
[V:1] CDEFG2C2 | 
[V:2] z4c4 | 
[V:3] E4z2A2 | 
[V:4] A,,4z4 | 
[V:1] c3BAGB2- | 
[V:2] e4f4- | 
[V:3] A2A2d4- | 
[V:4] z8 | 
[V:1] B2A2G2A2- | 
[V:2] f2e2d2c2 | 
[V:3] d2c2B2A2 | 
[V:4] z8 | 
[V:1] A2^G2A2A,2 | 
[V:2] d4e4 | 
[V:3] B4A3G | 
[V:4] z8 | 
[V:1] C3DE3F | 
[V:2] z2A2c3d | 
[V:3] ABc4BA | 
[V:4] z8 | 
[V:1] G2A2G2F2 | 
[V:2] e2f2e2f2- | 
[V:3] G2D2E2D2 | 
[V:4] z8 | 
[V:1] G4F4 | 
[V:2] fee4d2 | 
[V:3] E2C2D3C | 
[V:4] z8 | 
[V:1] E2C3DEF | 
[V:2] e4z2e2- | 
[V:3] A,2A4GF | 
[V:4] z8 | 
[V:1] G3FDEFG | 
[V:2] e2dcB2d2- | 
[V:3] E2G3FDE | 
[V:4] z8 | 
[V:1] ABc3BB2- | 
[V:2] dcABcde2 | 
[V:3] FGA3GE2 | 
[V:4] z8 | 
[V:1] BAA2GFG/F/E/D/ | 
[V:2] A4B4 | 
[V:3] F4E4 | 
[V:4] z8 | 
[V:1] C4z4 | 
[V:2] [M:2/1](3A4c6d2 | 
[V:3] [M:2/1](3:2:4F6E2F2E2 | 
[V:4] z8 | 
[V:1] [M:2/1](3:2:2G8G4 | 
[V:2] (3:2:2e8d4 | 
[V:3] (3C4c4B4 | 
[V:4] z8 | 
[V:1] (3:2:2G8E4 | 
[V:2] (3e6d2B4 | 
[V:3] (3c6B2G4 | 
[V:4] z8 | 
[V:1] (3:2:1E12 | 
[V:2] (3:2:2c8B4 | 
[V:3] (3:2:2A8G4 | 
[V:4] z8 | 
[V:1] (3:2:1z12 | 
[V:2] (3c6B2G4 | 
[V:3] (3A6G2E4 | 
[V:4] z8 | 
[V:1] (3E4F4E4- | 
[V:2] (3:2:2A8G4 | 
[V:3] (3:2:2c8B4 | 
[V:4] z8 | 
[V:1] (3E2D2E3(3DE2F2 | 
[V:2] (3A6G2E4 | 
[V:3] (3c6B2G4 | 
[V:4] z8 | 
[V:1] (3:2:4G6^F EF4 | 
[V:2] (3E4C4D4 | 
[V:3] (3:2:2B4A8 | 
[V:4] z8 | 
[V:1] (3:2:1G12 | 
[V:2] (3:2:4d6B2c2d2 | 
[V:3] (3:2:2G8z4 | 
[V:4] z8 | 
[V:1] (3:2:1z12 | 
[V:2] (3:2:4B6G2A2B2 | 
[V:3] (3:2:4G6E2F2G2 | 
[V:4] z8 | 
[V:1] (3:2:4G6E2F2G2 | 
[V:2] (3G4c6B2 | 
[V:3] (3:2:4E6C2D2E2 | 
[V:4] z8 | 
[V:1] (3E4F6E2 | 
[V:2] (3c6B2A4 | 
[V:3] (3:2:2C4F8 | 
[V:4] z8 | 
[V:1] (3:2:2E8D4 | 
[V:2] (3:2:2G4F8 | 
[V:3] (3G4A4D4 | 
[V:4] z8 | 
[V:1] [M:2/1]E8 | 
[V:2] [M:2/1]E4C2G2- | 
[V:3] [M:2/1]G4z2C2 | 
[V:4] z4C,4 | 
[V:1] z8 | 
[V:2] G2A3F_B2- | 
[V:3] E4F3E | 
[V:4] C,4D,4- | 
[V:1] z2A2B4 | 
[V:2] BAA4G2 | 
[V:3] FEE4D2 | 
[V:4] D,2C,2B,,4 | 
[V:1] c3BG2B2 | 
[V:2] A4z2B2 | 
[V:3] E4z4 | 
[V:4] A,,4E,4 | 
[V:1] A4G2c2- | 
[V:2] d4e3d | 
[V:3] z4z2E2 | 
[V:4] F,4E,4 | 
[V:1] cBB3AA2- | 
[V:2] B2d2c4 | 
[V:3] G4A3G | 
[V:4] z8 | 
[V:1] A2^G2A4- | 
[V:2] B4z2A2 | 
[V:3] E2G2F4 | 
[V:4] z8 | 
[V:1] A4z4 | 
[V:2] c6BA | 
[V:3] E4z2E2 | 
[V:4] z2A,,2C,4- | 
[V:1] z2E2G3F | 
[V:2] G2c2d2e2- | 
[V:3] G3AB2c2- | 
[V:4] C,2B,,A,,G,,2C,2- | 
[V:1] EDF3EE2 | 
[V:2] e2d2B2c2 | 
[V:3] cBA2G2A2 | 
[V:4] C,2D,2E,2C,2 | 
[V:1] D2C2D4 | 
[V:2] BAA4^G2 | 
[V:3] F2E4D2 | 
[V:4] D,2A,,2B,,4 | 
[V:1] C4z4 | 
[V:2] A4z2E2- | 
[V:3] E8 | 
[V:4] A,,3B,,C,3D, | 
[V:1] G6G2 | 
[V:2] EFG2C2E2 | 
[V:3] z8 | 
[V:4] E,3F,G,4 | 
[V:1] G3FE2D2 | 
[V:2] D2G3AB2 | 
[V:3] G6G2 | 
[V:4] G,,4z4 | 
[V:1] E2G4^F2 | 
[V:2] E2B2c2d2 | 
[V:3] G3FE2D2 | 
[V:4] z8 | 
[V:1] G4z4 | 
[V:2] G2d2e2d2- | 
[V:3] E2G4^F2 | 
[V:4] z2B,,2C,2D,2 | 
[V:1] z4z2E2 | 
[V:2] d4e2c2 | 
[V:3] G4z4 | 
[V:4] G,,2G,4A,2 | 
[V:1] F2D2E3F | 
[V:2] d3BB4- | 
[V:3] z8 | 
[V:4] F,2G,3E,E,2- | 
[V:1] G4z4 | 
[V:2] B2c2A2B2 | 
[V:3] z2E2F2D2 | 
[V:4] E,2C,2D,2B,,2 | 
[V:1] z4z2G2- | 
[V:2] G2c3BB2 | 
[V:3] E3FG4 | 
[V:4] C,3B,,G,,4 | 
[V:1] G2E2F4 | 
[V:2] G2c2A2B2- | 
[V:3] z8 | 
[V:4] C,4D,4 | 
[V:1] G8 | 
[V:2] BGG4c2- | 
[V:3] z2G4E2 | 
[V:4] E,3D,E,2C,2 | 
[V:1] F4E4 | 
[V:2] c2B2c3B | 
[V:3] F4G4- | 
[V:4] D,4C,4- | 
[V:1] E4z4 | 
[V:2] G2c2B2A2- | 
[V:3] G4F4 | 
[V:4] C,4D,3A,, | 
[V:1] z4z2C2 | 
[V:2] A2GFG4 | 
[V:3] E4E4 | 
[V:4] A,,4z2C,2 | 
[V:1] E4F4 | 
[V:2] C2c3BA2- | 
[V:3] z2G2A3G | 
[V:4] C,4F,,4 | 
[V:1] D4C4 | 
[V:2] A2G2A4 | 
[V:3] F2D2E4 | 
[V:4] _B,,4A,,4 | 
[V:1] D4E4 | 
[V:2] z2A2c4- | 
[V:3] F4G2C2 | 
[V:4] D,4C,4 | 
[V:1] z2E2G4 | 
[V:2] c2BAG4 | 
[V:3] G3ABAc2- | 
[V:4] z2E,2E,4 | 
[V:1] A3GFEF2 | 
[V:2] z2c4B2 | 
[V:3] cBA4GF | 
[V:4] A,,4D,4 | 
[V:1] E2c4BA | 
[V:2] c2e4d2 | 
[V:3] G4A4 | 
[V:4] C,4F,4 | 
[V:1] G8 | 
[V:2] e8 | 
[V:3] B8 | 
[V:4] E,8 | 
[V:1] z4G4 | 
[V:2] z4e4 | 
[V:3] z4B4 | 
[V:4] z4E,4 | 
[V:1] G4G4 | 
[V:2] d3cd4 | 
[V:3] B4B3A/G/ | 
[V:4] G,4G,4 | 
[V:1] E6F2 | 
[V:2] c8 | 
[V:3] G3FE3D/C/ | 
[V:4] C,6B,,A,, | 
[V:1] G4E2F2- | 
[V:2] B4A4- | 
[V:3] D4C4 | 
[V:4] G,,4A,,4 | 
[V:1] FEG3FED | 
[V:2] A2^G^F^G4 | 
[V:3] D8 | 
[V:4] B,,8 | 
[V:1] C8- | 
[V:2] A8- | 
[V:3] E4F4 | 
[V:4] A,,8- | 
[V:1] C8 ||  
[V:2] A8 ||  
[V:3] E8 ||  
[V:4] A,,8 ||  
[V:1] [M:2/1]z8 | 
[V:2] [M:2/1]z8 | 
[V:3] [M:2/1]G6G2 | 
[V:4] [M:2/1]z8 | 
[V:1] G6G2 | 
[V:2] z8 | 
[V:3] G4E4 | 
[V:4] z8 | 
[V:1] G4E4 | 
[V:2] z8 | 
[V:3] E8 | 
[V:4] C,6C,2 | 
[V:1] E8 | 
[V:2] c6c2 | 
[V:3] z8 | 
[V:4] C,4A,,4 | 
[V:1] z8 | 
[V:2] c4A4 | 
[V:3] z4E4 | 
[V:4] A,,8 | 
[V:1] z8 | 
[V:2] A8 | 
[V:3] F4D4 | 
[V:4] z8 | 
[V:1] z4E4 | 
[V:2] z8 | 
[V:3] E3FG2A2- | 
[V:4] C,8 | 
[V:1] F4D4 | 
[V:2] z4A4 | 
[V:3] AGFEF3G | 
[V:4] D,4D,4 | 
[V:1] E3FG2A2- | 
[V:2] c4c3B | 
[V:3] G4z4 | 
[V:4] C,8 | 
[V:1] AGFEF3E | 
[V:2] A3GA4 | 
[V:3] z8 | 
[V:4] D,8 | 
[V:1] G4z4 | 
[V:2] B8 | 
[V:3] G6G2 | 
[V:4] G,,8 | 
[V:1] G6G2 | 
[V:2] E8 | 
[V:3] G4E4 | 
[V:4] z8 | 
[V:1] G4E4 | 
[V:2] z8 | 
[V:3] E4z2E2 | 
[V:4] C,6C,2 | 
[V:1] E4z2E2- | 
[V:2] c6c2 | 
[V:3] G4A3G | 
[V:4] C,4A,,4 | 
[V:1] EDE2F2E2- | 
[V:2] c4A4 | 
[V:3] E2A3GFE | 
[V:4] A,,8 | 
[V:1] E2D2E4- | 
[V:2] A4c4 | 
[V:3] F2F2E4 | 
[V:4] z4A,,4 | 
[V:1] E4z4 | 
[V:2] B2c4BA | 
[V:3] z2G2A4 | 
[V:4] E,4F,4 | 
[V:1] z8 | 
[V:2] c2B2E3F | 
[V:3] G3ABAc2- | 
[V:4] E,2G,3F,E,2- | 
[V:1] z8 | 
[V:2] G2A2B4 | 
[V:3] cBA4^G2 | 
[V:4] E,2D,C,B,,4 | 
[V:1] z4E4- | 
[V:2] E4z4 | 
[V:3] A8- | 
[V:4] A,,8 | 
[V:1] E2E2E3F | 
[V:2] c6c2 | 
[V:3] A8 | 
[V:4] z8 | 
[V:1] G2A4^G2 | 
[V:2] c4B4 | 
[V:3] z8 | 
[V:4] z8 | 
[V:1] A4z4 | 
[V:2] A4z4 | 
[V:3] z4z2E2 | 
[V:4] z2A,,2C,4 | 
[V:1] z8 | 
[V:2] z8 | 
[V:3] F4E2D2- | 
[V:4] D,4G,,3A,, | 
[V:1] z8 | 
[V:2] z2G2c4 | 
[V:3] D2G4^F2 | 
[V:4] B,,2C,2A,,4 | 
[V:1] G4E2F2 | 
[V:2] B4G2A2 | 
[V:3] G4z4 | 
[V:4] G,,4z4 | 
[V:1] G4G4 | 
[V:2] B2c3BAG | 
[V:3] z8 | 
[V:4] z8 | 
[V:1] F2E4D2 | 
[V:2] A2E2F4 | 
[V:3] z8 | 
[V:4] z8 | 
[V:1] E8 | 
[V:2] E8 | 
[V:3] z4z2c2- | 
[V:4] z2A,,2C,3D, | 
[V:1] z8 | 
[V:2] z8 | 
[V:3] c2c2c4 | 
[V:4] E,2F,3E,D,C, | 
[V:1] z8 | 
[V:2] z8 | 
[V:3] B2A4^G2 | 
[V:4] D,2A,,2B,,4 | 
[V:1] z4z2c2- | 
[V:2] z2A2c3d | 
[V:3] A8 | 
[V:4] A,,8 | 
[V:1] c2c2c4 | 
[V:2] e2f3edc | 
[V:3] z8 | 
[V:4] z8 | 
[V:1] B2A4^G2 | 
[V:2] d2A2B4 | 
[V:3] z8 | 
[V:4] z8 | 
[V:1] A8 | 
[V:2] A4z2e2- | 
[V:3] z2A2c4 | 
[V:4] z4z2A,,2 | 
[V:1] z2A4G2 | 
[V:2] e2d2c2d2- | 
[V:3] B2A2c3B | 
[V:4] E,2F,2C,2G,2 | 
[V:1] F2G3FF2 | 
[V:2] dcc2B2A2- | 
[V:3] A2G2E2FG | 
[V:4] D,2E,3D,D,2 | 
[V:1] E2D4^C2 | 
[V:2] A2G2A4 | 
[V:3] A2D2E4 | 
[V:4] C,2B,,2A,,4 | 
[V:1] D8 | 
[V:2] z4d4- | 
[V:3] D8 | 
[V:4] D,4G,,4 | 
[V:1] z8 | 
[V:2] d2d2d4 | 
[V:3] z8 | 
[V:4] G,6G,2 | 
[V:1] z8 | 
[V:2] B4B4 | 
[V:3] z8 | 
[V:4] G,4E,4 | 
[V:1] z8 | 
[V:2] z4z2B2 | 
[V:3] z2E2F2D2 | 
[V:4] E,4z4 | 
[V:1] z8 | 
[V:2] c2A2B3c | 
[V:3] E3FG4 | 
[V:4] z4z2G,,2 | 
[V:1] z8 | 
[V:2] d4z4 | 
[V:3] z2G2F2E2- | 
[V:4] G,,A,,B,,C,D,2A,,2 | 
[V:1] z8 | 
[V:2] z2d2c2B2- | 
[V:3] EDD2E2G2- | 
[V:4] B,,4A,,2G,,2 | 
[V:1] z4z2G2 | 
[V:2] BAA2B3A | 
[V:3] G2^F2G3A/G/ | 
[V:4] D,4G,,4 | 
[V:1] F2E4D2 | 
[V:2] c2B3A/G/A2 | 
[V:3] A2E2F4 | 
[V:4] z8 | 
[V:1] E4z2c2 | 
[V:2] B2E2z2e2- | 
[V:3] E2B2A2GA | 
[V:4] z2G,2F,2E,2- | 
[V:1] B2A3^GG2 | 
[V:2] e2f2e4 | 
[V:3] Bcd2B4 | 
[V:4] E,D,D,2E,4 | 
[V:1] A4z2A2- | 
[V:2] e8 | 
[V:3] A4z4 | 
[V:4] A,,8 | 
[V:1] AGA2G2A2- | 
[V:2] z8 | 
[V:3] c8 | 
[V:4] z2F,2E,2F,2- | 
[V:1] A2GFE3D | 
[V:2] z8 | 
[V:3] c4c4 | 
[V:4] F,2E,D,C,4 | 
[V:1] E2F2E2F2- | 
[V:2] z8 | 
[V:3] A8 | 
[V:4] z2D,2C,2D,2- | 
[V:1] F2EDC2D2- | 
[V:2] z8 | 
[V:3] A4z2A2 | 
[V:4] D,2C,B,,A,,2D,2 | 
[V:1] DCDEF2D2- | 
[V:2] z8 | 
[V:3] B4A2B2- | 
[V:4] G,,2G,2F,2G,2- | 
[V:1] DCDEF2D2 | 
[V:2] z8 | 
[V:3] B2G2A2B2 | 
[V:4] G,2F,E,D,2G,2 | 
[V:1] G3ABAc2- | 
[V:2] z2e2d2c2 | 
[V:3] c4z4 | 
[V:4] C,D,E,F,G,2A,2 | 
[V:1] c2BAG3A | 
[V:2] e2dcB2e2 | 
[V:3] z8 | 
[V:4] A,,B,,C,D,E,3F, | 
[V:1] B2A4^G2 | 
[V:2] d2c2d3e | 
[V:3] z8 | 
[V:4] G,2A,2B,4 | 
[V:1] A8 | 
[V:2] f2e4c2 | 
[V:3] z4z2A2 | 
[V:4] A,4A,,4 | 
[V:1] z2E2G4 | 
[V:2] e2e3dcB | 
[V:3] c4B2c2- | 
[V:4] z2C,2E,4 | 
[V:1] A3GF2E2 | 
[V:2] A2c2d2e2 | 
[V:3] c2A2B2c2 | 
[V:4] F,3E,D,2C,2 | 
[V:1] F4E4 | 
[V:2] d3cB3A | 
[V:3] A4G3A | 
[V:4] D,4E,4 | 
[V:1] z2E3FG2 | 
[V:2] G4z4 | 
[V:3] BGc4B2 | 
[V:4] z2E,2G,4 | 
[V:1] E2A4G2 | 
[V:2] z2c2A2B2- | 
[V:3] cBcBcBe2- | 
[V:4] A,3G,F,2E,2 | 
[V:1] A3Bc2B2 | 
[V:2] BAA3G/F/G2- | 
[V:3] e2d2e4 | 
[V:4] F,4E,4 | 
[V:1] G3FEDE2 | 
[V:2] G2C2c3B | 
[V:3] E4z2A2- | 
[V:4] z2E,4C,2 | 
[V:1] F3EDCD2- | 
[V:2] AGA4G2 | 
[V:3] A2F2G2D2 | 
[V:4] D,2A,,2B,,4 | 
[V:1] D2^C2D4- | 
[V:2] A4A4 | 
[V:3] E4D4 | 
[V:4] A,,4D,4 | 
[V:1] D4z2G2- | 
[V:2] B3GG4 | 
[V:3] z2G4G2 | 
[V:4] G,,4z4 | 
[V:1] G2G2G3F | 
[V:2] z8 | 
[V:3] G3FE2D2 | 
[V:4] z8 | 
[V:1] E2D2E2G2- | 
[V:2] z8 | 
[V:3] E2F2G4 | 
[V:4] z8 | 
[V:1] G2^F2G4 | 
[V:2] z2A2B2G2 | 
[V:3] A4G4 | 
[V:4] z4z2E,2 | 
[V:1] z8 | 
[V:2] A2B2c4 | 
[V:3] z4z2A2 | 
[V:4] F,2D,2E,2F,2 | 
[V:1] z2E2F2D2 | 
[V:2] z8 | 
[V:3] B2G2A2B2 | 
[V:4] G,4z4 | 
[V:1] E2F2G4 | 
[V:2] z2A2B2G2 | 
[V:3] c4z4 | 
[V:4] z4z2E,2 | 
[V:1] z8 | 
[V:2] A2B2c4 | 
[V:3] z4z2A2 | 
[V:4] F,2D,2E,2F,2 | 
[V:1] z2E2F2D2 | 
[V:2] z8 | 
[V:3] B2G2A2B2 | 
[V:4] G,3F,/E,/D,4 | 
[V:1] E3FG4- | 
[V:2] z4z2G2 | 
[V:3] c4z4 | 
[V:4] C,8 | 
[V:1] G4z2G2 | 
[V:2] E3FG4 | 
[V:3] z8 | 
[V:4] z2G,2E,3F, | 
[V:1] E3FG4 | 
[V:2] C4z2c2- | 
[V:3] z2G2E3F | 
[V:4] G,4C,4- | 
[V:1] C2c4BA | 
[V:2] c2BAe4 | 
[V:3] G4G4 | 
[V:4] C,4C,4 | 
[V:1] B2A4^G2 | 
[V:2] d3cB4 | 
[V:3] F4E4 | 
[V:4] D,4E,4 | 
[V:1] A8 | 
[V:2] [M:2/1](3:2:2A8A4 | 
[V:3] [M:2/1](3:2:1E12 | 
[V:4] A,,8 | 
[V:1] z8 | 
[V:2] (3G6A2B4 | 
[V:3] (3z4C4D4 | 
[V:4] [M:2/1](3:2:1z12 | 
[V:1] z8 | 
[V:2] (3c4A4G4 | 
[V:3] (3E6F2G4 | 
[V:4] (3C,6D,2E,4 | 
[V:1] z8 | 
[V:2] (3:2:4c6B AB4 | 
[V:3] (3A6G2F4 | 
[V:4] (3:2:2F,4D,8 | 
[V:1] z8 | 
[V:2] (3c4A4d4 | 
[V:3] (3E4F4D4 | 
[V:4] (3:2:2C,4D,8 | 
[V:1] z8 | 
[V:2] (3c4B6E2 | 
[V:3] (3G6A2B4 | 
[V:4] (3:2:2E,8z4 | 
[V:1] z8 | 
[V:2] (3:2:2e8d4 | 
[V:3] (3:2:4c6B AB4 | 
[V:4] (3E,6F,2G,4 | 
[V:1] z8 | 
[V:2] (3:2:4c6B2c2d2 | 
[V:3] (3c4F4c4- | 
[V:4] (3A,6G,2F,4 | 
[V:1] z8 | 
[V:2] (3:2:4e6d cd4 | 
[V:3] (3:2:5c2B2A3GA4 | 
[V:4] (3:2:2E,4F,8 | 
[V:1] z8 | 
[V:2] [M:2/1]e3dc2B2 | 
[V:3] [M:2/1]B4A2G2 | 
[V:4] [M:2/1]E,4z4 | 
[V:1] z8 | 
[V:2] c2A2B4 | 
[V:3] A4G4 | 
[V:4] z4E,4 | 
[V:1] z8 | 
[V:2] z8 | 
[V:3] F2E2F4 | 
[V:4] D,2C,2D,4 | 
[V:1] z8 | 
[V:2] e4d2c2 | 
[V:3] E3FG2A2 | 
[V:4] C,4B,,2A,,2- | 
[V:1] z8 | 
[V:2] d4c4 | 
[V:3] B4E2G2- | 
[V:4] A,,^G,,G,,2A,,2E,2- | 
[V:1] z8 | 
[V:2] B2A3^G^G2 | 
[V:3] GFE4D2 | 
[V:4] E,D,C,2B,,4 | 
[V:1] z8 | 
[V:2] A4z2c2- | 
[V:3] E6C2 | 
[V:4] A,,8 | 
[V:1] z2G4G2 | 
[V:2] c2c2c3B/A/ | 
[V:3] C4z4 | 
[V:4] z8 | 
[V:1] G4E4 | 
[V:2] B2c4BA | 
[V:3] z8 | 
[V:4] z8 | 
[V:1] E8 | 
[V:2] GFEDC2c2 | 
[V:3] z8 | 
[V:4] z4z2E,2 | 
[V:1] z8 | 
[V:2] A2d2B2c2 | 
[V:3] z4z2E2 | 
[V:4] F,2D,2E,3C, | 
[V:1] z8 | 
[V:2] A2B2G4 | 
[V:3] F2D2E2G2- | 
[V:4] D,2B,,2C,2G,,2 | 
[V:1] z4G4 | 
[V:2] z4z2B2 | 
[V:3] G2^F2G4 | 
[V:4] A,,4G,,4 | 
[V:1] E2F2G3E | 
[V:2] c2A2B3G | 
[V:3] z8 | 
[V:4] z8 | 
[V:1] F2E4D2 | 
[V:2] A2E2F4 | 
[V:3] z8 | 
[V:4] z8 | 
[V:1] E4z2E2 | 
[V:2] E6G2- | 
[V:3] G8 | 
[V:4] C,8 | 
[V:1] G4F4 | 
[V:2] GCc4B2 | 
[V:3] E4F4 | 
[V:4] C,4D,4 | 
[V:1] E8 | 
[V:2] c8 | 
[V:3] G8 | 
[V:4] C,8 | 
[V:1] D4E2G2- | 
[V:2] B4c4 | 
[V:3] G4G4- | 
[V:4] G,,4C,3D, | 
[V:1] G2FED4 | 
[V:2] B2c2A4 | 
[V:3] G4F4 | 
[V:4] E,2C,2D,4 | 
[V:1] C8 | 
[V:2] z4A4 | 
[V:3] E8 | 
[V:4] A,,8- | 
[V:1] z8 | 
[V:2] c8 | 
[V:3] z4E4 | 
[V:4] A,,8 | 
[V:1] z8 | 
[V:2] B8 | 
[V:3] G8 | 
[V:4] E,8 | 
[V:1] z4E4 | 
[V:2] A4c4- | 
[V:3] A8 | 
[V:4] z4A,,4 | 
[V:1] E8 | 
[V:2] c2BAG3A | 
[V:3] E8 | 
[V:4] C,8 | 
[V:1] D8 | 
[V:2] B4A4 | 
[V:3] F8 | 
[V:4] D,8 | 
[V:1] C4c4 | 
[V:2] z4A4 | 
[V:3] E4F4- | 
[V:4] A,,8 | 
[V:1] c4c4 | 
[V:2] A4A4 | 
[V:3] F4E4 | 
[V:4] A,,4A,,4 | 
[V:1] d4d4 | 
[V:2] F4G4 | 
[V:3] D8 | 
[V:4] B,,8 | 
[V:1] c6BA | 
[V:2] A8 | 
[V:3] E6F2 | 
[V:4] A,,8 | 
[V:1] B8 | 
[V:2] d8 | 
[V:3] G8 | 
[V:4] G,,8 | 
[V:1] c6BA | 
[V:2] c4e4- | 
[V:3] z8 | 
[V:4] A,,6B,,2 | 
[V:1] G8 | 
[V:2] e2dcB3c | 
[V:3] z4G4 | 
[V:4] C,4z4 | 
[V:1] z4G4 | 
[V:2] d4G4 | 
[V:3] G4G4 | 
[V:4] G,,4G,,4 | 
[V:1] G4G4 | 
[V:2] z4G4 | 
[V:3] G8- | 
[V:4] G,,4C,4- | 
[V:1] c4B2c2- | 
[V:2] G4G4 | 
[V:3] G8 | 
[V:4] C,2D,2E,4 | 
[V:1] cBAGA4 | 
[V:2] c8 | 
[V:3] A8 | 
[V:4] A,,8 | 
[V:1] G8 | 
[V:2] c4G4 | 
[V:3] E8 | 
[V:4] C,6B,,2 | 
[V:1] A8 | 
[V:2] c8 | 
[V:3] E6F2 | 
[V:4] A,,8 | 
[V:1] D8 | 
[V:2] B8 | 
[V:3] G8- | 
[V:4] G,,8 | 
[V:1] E6F2 | 
[V:2] c6BA | 
[V:3] G8- | 
[V:4] C,6D,2 | 
[V:1] G8- | 
[V:2] G6A2 | 
[V:3] G8- | 
[V:4] E,2C,2E,3F, | 
[V:1] G8- | 
[V:2] B2G2B3c | 
[V:3] G8- | 
[V:4] G,8 | 
[V:1] G8 |]  
[V:2] d8 |]  
[V:3] G8 |]  
[V:4] G,,8 |]  



